X:1
T:Title
%%score { 1 | 2 }
L:1/8
M:3/4
K:A
V:1 treble nm="Grand Piano"
V:2 bass 
V:1
 z2 z2[Q:1/4=94] [Ec]>[DB] | [CA]3 [CE] [DF][C^E] | [DF] [FA]3 G>A | B3 A [Gd][Ac] | %4
 [GB]4 [Ec]>[DB] | [CA]3 [CE] [DF][CE] | [DF] [FA]3 B>B | B3 A cB | [CA]4 [GB]>[FA] | G3 G AB | %10
 c B3 [EAc]>[DGB] | [CFA]3 [CFA] [B,FB][F=c] | [^Ec]4 [=Ec]>[DB] | [CA]3 [CE] [DF][CE] | %14
 [DF] [FA]3 B>B | B3 A cB |[M:2/4] [CA]4 |] %17
V:2
 z2 z2 [A,,A,]>[A,,A,] | [A,,A,]3 [A,,A,] [A,,A,][A,,A,] | [D,A,] [D,D]3 [E,DE]>[E,CE] | %3
 [E,DE]3 [E,CE] [E,B,][E,C] | [E,E]4 [A,,A,]>[A,,A,] | [A,,A,]3 [A,,A,] [A,,A,][A,,A,] | %6
 [D,A,] [D,D]3 [E,DE]>[E,DE] | [E,DE]3 [E,CE] [E,A,E][E,G,D] | [A,,E,]4 E,>E, | %9
 [E,B,E]3 [E,B,E] [E,CE][E,G,E] | [E,A,E] [E,G,E]3 A,,>A,, | A,,3 F, D,[D,A,] | %12
 [C,G,]4 [A,,A,]>[A,,A,] | [A,,A,]3 [A,,A,] [A,,A,][A,,A,] | [D,A,] [D,D]3 [E,DE]>[E,DE] | %15
 [E,DE]3 [E,CE] [E,A,E][E,G,D] |[M:2/4] [A,,E,]4 |] %17

